lib/svgs/solid/arrows-left-right-to-line.svg

<svg xmlns="http://www.w3.org/2000/svg" viewBox="0 0 640 512"><!--! Font Awesome Free 6.5.1 by @fontawesome - https://fontawesome.com License - https://fontawesome.com/license/free (Icons: CC BY 4.0, Fonts: SIL OFL 1.1, Code: MIT License) Copyright 2023 Fonticons, Inc. --><path d="M32 64c17.7 0 32 14.3 32 32l0 320c0 17.7-14.3 32-32 32s-32-14.3-32-32V96C0 78.3 14.3 64 32 64zm214.6 73.4c12.5 12.5 12.5 32.8 0 45.3L205.3 224l229.5 0-41.4-41.4c-12.5-12.5-12.5-32.8 0-45.3s32.8-12.5 45.3 0l96 96c12.5 12.5 12.5 32.8 0 45.3l-96 96c-12.5 12.5-32.8 12.5-45.3 0s-12.5-32.8 0-45.3L434.7 288l-229.5 0 41.4 41.4c12.5 12.5 12.5 32.8 0 45.3s-32.8 12.5-45.3 0l-96-96c-12.5-12.5-12.5-32.8 0-45.3l96-96c12.5-12.5 32.8-12.5 45.3 0zM640 96V416c0 17.7-14.3 32-32 32s-32-14.3-32-32V96c0-17.7 14.3-32 32-32s32 14.3 32 32z"/></svg>

<svg xmlns="http://www.w3.org/2000/svg" viewBox="0 0 640 512"><!--! Font Awesome Free 6.1.1 by @fontawesome - https://fontawesome.com License - https://fontawesome.com/license/free (Icons: CC BY 4.0, Fonts: SIL OFL 1.1, Code: MIT License) Copyright 2022 Fonticons, Inc. --><path d="M32 64C49.67 64 64 78.33 64 96V416C64 433.7 49.67 448 32 448C14.33 448 0 433.7 0 416V96C0 78.33 14.33 64 32 64zM246.6 137.4C259.1 149.9 259.1 170.1 246.6 182.6L205.3 224H434.7L393.4 182.6C380.9 170.1 380.9 149.9 393.4 137.4C405.9 124.9 426.1 124.9 438.6 137.4L534.6 233.4C547.1 245.9 547.1 266.1 534.6 278.6L438.6 374.6C426.1 387.1 405.9 387.1 393.4 374.6C380.9 362.1 380.9 341.9 393.4 329.4L434.7 288H205.3L246.6 329.4C259.1 341.9 259.1 362.1 246.6 374.6C234.1 387.1 213.9 387.1 201.4 374.6L105.4 278.6C92.88 266.1 92.88 245.9 105.4 233.4L201.4 137.4C213.9 124.9 234.1 124.9 246.6 137.4V137.4zM640 416C640 433.7 625.7 448 608 448C590.3 448 576 433.7 576 416V96C576 78.33 590.3 64 608 64C625.7 64 640 78.33 640 96V416z"/></svg>
